common/src/main/resources/icons/ide/rating2.svg

<!--
  - The MIT License (MIT)
  -
  - Copyright (c) 2015-2024 Elior "Mallowigi" Boukhobza
  -
  - Permission is hereby granted, free of charge, to any person obtaining a copy
  - of this software and associated documentation files (the "Software"), to deal
  - in the Software without restriction, including without limitation the rights
  - to use, copy, modify, merge, publish, distribute, sublicense, and/or sell
  - copies of the Software, and to permit persons to whom the Software is
  - furnished to do so, subject to the following conditions:
  -
  - The above copyright notice and this permission notice shall be included in all
  - copies or substantial portions of the Software.
  -
  - THE SOFTWARE IS PROVIDED "AS IS", WITHOUT WARRANTY OF ANY KIND, EXPRESS OR
  - IMPLIED, INCLUDING BUT NOT LIMITED TO THE WARRANTIES OF MERCHANTABILITY,
  - FITNESS FOR A PARTICULAR PURPOSE AND NONINFRINGEMENT. IN NO EVENT SHALL THE
  - AUTHORS OR COPYRIGHT HOLDERS BE LIABLE FOR ANY CLAIM, DAMAGES OR OTHER
  - LIABILITY, WHETHER IN AN ACTION OF CONTRACT, TORT OR OTHERWISE, ARISING FROM,
  - OUT OF OR IN CONNECTION WITH THE SOFTWARE OR THE USE OR OTHER DEALINGS IN THE
  - SOFTWARE.
  -->

<svg xmlns="http://www.w3.org/2000/svg" width="11" height="11" viewBox="0 0 11 11">
  <path fill="#FFFFFF" fill-rule="evenodd" data-tint="true"
        d="M5.50000002,9.12097567 L2.10081307,11 L2.75000001,7.02016261 L0,4.20162612 L3.80040655,3.62097568 L5.50000002,0 L7.19959349,3.62097568 L11,4.20162612 L8.25000003,7.02016261 L8.89918697,11 L5.50000002,9.12097567 Z M5.50000002,7.93006001 L7.63131359,9.10822117 L7.22426891,6.61283579 L8.94853781,4.84559406 L6.5656568,4.48152223 L5.50000002,2.21114562 L5,3.29851612 L5,8.20210912 L5.50000002,7.93006001 Z"/>
</svg>

<svg xmlns="http://www.w3.org/2000/svg" width="11" height="11"><path fill="#FFF" fill-rule="evenodd" d="M5.5 9.121 2.1 11l.65-3.98L0 4.202l3.8-.581L5.5 0l1.7 3.621 3.8.58-2.75 2.82L8.9 11zm0-1.19 2.131 1.177-.407-2.495L8.95 4.846l-2.383-.364L5.5 2.212 5 3.298v4.903z" data-tint="true"/></svg>
